!!!OTL: Verschlafener Jaeger
!!!OTL-incipit:Es wollt es ein Jaegerlein jagen
!!!ARE: Europa, Mitteleuropa, Deutschland / France, Lothringen, Forbach, Hellimer
!!!YOR: 7, S. 215
!!    1932 aufgezeichnet
!!!SCT: Q0152G
!!!TXL: @@DE
!!!YEM: Copyright 1995, estate of Helmut Schaffrath.
**kern	**text
*ICvox	*
*M3/4	*
*k[f#]	*
*G:	*
!LO:TX:a:t=398	!
{4d	Es
=1	=1
4.g	wollt
8a	es
4b	ein
=2	=2
4a	Jä-
4g	-ger-
4f#	-lein
=3	=3
(<4.g	ja-
8a	.
4b)	.
=4	=4
2a}	-gen
{4d	drei
=5	=5
4.g	Stün-
8a	-de-
4b	-lein
=6	=6
4a	vor
4g	es
4f#	dem
=7	=7
(<4.g	Ta-
8a	.
4b)	.
=8	=8
2a}	-gen
{4g	wohl
=9	=9
4.g	auf
8b	es
4cc	ein
=10	=10
4.dd	Hir-
8ee	-sche-
4dd	-lein
=11	=11
4cc	o-
4b	-der
4a	ein
=12	=12
(<2.b	Reh,
=13	=13
2a)}	.
{4g	wohl
=14	=14
4.g	auf
8b	es
4cc	ein
=15	=15
4.dd	Hir-
8ee	-sche-
4dd	-lein
=16	=16
4cc	o-
4b	-der
4a	ein
=17	=17
2g}	Reh.
==	==
!!!AGN: Ballade, Verfuehrung, Versagen, Spott
!!!ONB: ESAC (Essen Associative Code) Database: BALLADE
!!!AMT: simple triple
!!!AIN: vox
!!!EED: Helmut Schaffrath
!!!EEV: 1.0
!!!RDF**kern: <= below
!!!source: Deutsche Volkslieder mit ihren Melodien Balladen. Herausgegeben vom Deutschen Volksliedarchiv. Siebenterer Band. Freiburg/Breisgau 1982.
!!!page: 215
!!!ENC: Anna Maria Matuszewska
!!!EEV: 2025/03/07
*-	*-
